images/logo-03.svg

<svg enable-background="new 0 0 133.1 40" viewBox="0 0 133.1 40" xmlns="http://www.w3.org/2000/svg"><g fill="#604c99"><path d="m0 32.6 15.5 7.4 15.5-7.4v-32.6h-31zm3.1-29.5h24.9v27.6l-12.4 5.9-12.5-5.9z"/><path d="m18.1 20.2h-2.6v14.8l2.6-1.3zm4.2-7.8h-2.6v20.6l2.6-1.2zm4.1-7.7h-2.6v26.3l2.6-1.2zm21.2 7h7.6v10.2c0 4-2.4 6.6-6.1 6.6-3.8 0-6.1-2.3-6.1-6.4h-3.9c0 6.2 3.9 10.1 10 10.1 6 0 10.1-4 10.1-10.1v-14.1h-11.6zm23 2.9c-5.4 0-8.9 3.7-8.9 8.7s3.5 8.7 8.9 8.7 8.9-3.7 8.9-8.7-3.5-8.7-8.9-8.7zm0 14c-3.1 0-5.1-2.4-5.1-5.3s2-5.3 5.1-5.3 5.1 2.4 5.1 5.3-2 5.3-5.1 5.3zm-4.9-18.9h9.8v2.9h-9.8zm23 11.9c-2.4-.3-3.4-.8-3.4-1.9 0-1.2 1.3-1.9 3.7-1.9 1.7 0 3.3.5 4.8 1.4l1.7-2.7c-1.9-1.3-4.1-1.9-6.6-1.9-4.3 0-7.2 2.1-7.2 5.1 0 2.9 2.5 4.7 6.8 5.1 2.6.3 3.6.8 3.6 2s-1.2 1.9-3.3 1.9c-2.2 0-4.4-.7-5.9-1.9l-1.8 2.7c2.2 1.7 4.7 2.5 7.5 2.5 4.3 0 7.2-2.1 7.2-5.2s-2.2-4.7-7.1-5.2zm18.6-7c-2.2 0-4 .8-5.4 2.3v-8.9h-3.8v23.6h3.8v-8.8c0-2.8 1.9-4.8 4.7-4.8 2.5 0 4 1.7 4 4.6v9h3.8v-9.2c.1-4.7-2.7-7.8-7.1-7.8zm22 .4v8.8c0 2.8-1.9 4.8-4.6 4.8-2.4 0-3.9-1.7-3.9-4.6v-9h-3.8v9.2c0 4.8 2.8 7.8 7 7.8 2.3 0 4.3-.8 5.7-2.5v2.2h3.4v-16.7z"/></g></svg>

<svg xmlns="http://www.w3.org/2000/svg" xml:space="preserve" id="Layer_1" x="0" y="0" style="enable-background:new 0 0 133.1 40" version="1.1" viewBox="0 0 133.1 40"><style>.st0{fill:#604c99}</style><path d="M0 32.6 15.5 40 31 32.6V0H0v32.6zM3.1 3.1H28v27.6l-12.4 5.9-12.5-5.9V3.1z" class="st0"/><path d="M18.1 20.2h-2.6V35l2.6-1.3zM22.3 12.4h-2.6V33l2.6-1.2zM26.4 4.7h-2.6V31l2.6-1.2zM47.6 11.7h7.6v10.2c0 4-2.4 6.6-6.1 6.6-3.8 0-6.1-2.3-6.1-6.4h-3.9c0 6.2 3.9 10.1 10 10.1 6 0 10.1-4 10.1-10.1V8H47.6v3.7zM70.6 14.6c-5.4 0-8.9 3.7-8.9 8.7s3.5 8.7 8.9 8.7 8.9-3.7 8.9-8.7-3.5-8.7-8.9-8.7zm0 14c-3.1 0-5.1-2.4-5.1-5.3s2-5.3 5.1-5.3c3.1 0 5.1 2.4 5.1 5.3s-2 5.3-5.1 5.3zM65.7 9.7h9.8v2.9h-9.8zM88.7 21.6c-2.4-.3-3.4-.8-3.4-1.9 0-1.2 1.3-1.9 3.7-1.9 1.7 0 3.3.5 4.8 1.4l1.7-2.7c-1.9-1.3-4.1-1.9-6.6-1.9-4.3 0-7.2 2.1-7.2 5.1 0 2.9 2.5 4.7 6.8 5.1 2.6.3 3.6.8 3.6 2s-1.2 1.9-3.3 1.9c-2.2 0-4.4-.7-5.9-1.9l-1.8 2.7c2.2 1.7 4.7 2.5 7.5 2.5 4.3 0 7.2-2.1 7.2-5.2s-2.2-4.7-7.1-5.2zM107.3 14.6c-2.2 0-4 .8-5.4 2.3V8h-3.8v23.6h3.8v-8.8c0-2.8 1.9-4.8 4.7-4.8 2.5 0 4 1.7 4 4.6v9h3.8v-9.2c.1-4.7-2.7-7.8-7.1-7.8zM129.3 15v8.8c0 2.8-1.9 4.8-4.6 4.8-2.4 0-3.9-1.7-3.9-4.6v-9H117v9.2c0 4.8 2.8 7.8 7 7.8 2.3 0 4.3-.8 5.7-2.5v2.2h3.4V15h-3.8z" class="st0"/></svg>
